X: 278
T:Pavane d'Angleterre
M:4/4
L:1/4
Q:120
C:Claude Gervaise
R:pavane
O:France
H:XV eme siecle
Z:S. Piron
K:G
B2BB|B2Bd|cBAA|B4:|
|:d2cc|B>ABB|AGFF|E4:|
|:B2GA|F3B|ABGA|F3B|AGFF|E3B|AGFF|E4:|
W:
W: From "Falaleiro" http://home.t-online.de/home/pheld/homepage.htm

